svgs/light/sitemap.svg

<svg xmlns="http://www.w3.org/2000/svg" viewBox="0 0 576 512"><!--! Font Awesome Pro 6.6.0 by @fontawesome - https://fontawesome.com License - https://fontawesome.com/license (Commercial License) Copyright 2024 Fonticons, Inc. --><path d="M320 64c8.8 0 16 7.2 16 16l0 64c0 8.8-7.2 16-16 16l-16 0-32 0-16 0c-8.8 0-16-7.2-16-16l0-64c0-8.8 7.2-16 16-16l64 0zM256 192l16 0 0 48-160 0c-26.5 0-48 21.5-48 48l0 32-16 0c-26.5 0-48 21.5-48 48l0 64c0 26.5 21.5 48 48 48l64 0c26.5 0 48-21.5 48-48l0-64c0-26.5-21.5-48-48-48l-16 0 0-32c0-8.8 7.2-16 16-16l160 0 0 48-16 0c-26.5 0-48 21.5-48 48l0 64c0 26.5 21.5 48 48 48l64 0c26.5 0 48-21.5 48-48l0-64c0-26.5-21.5-48-48-48l-16 0 0-48 160 0c8.8 0 16 7.2 16 16l0 32-16 0c-26.5 0-48 21.5-48 48l0 64c0 26.5 21.5 48 48 48l64 0c26.5 0 48-21.5 48-48l0-64c0-26.5-21.5-48-48-48l-16 0 0-32c0-26.5-21.5-48-48-48l-160 0 0-48 16 0c26.5 0 48-21.5 48-48l0-64c0-26.5-21.5-48-48-48l-64 0c-26.5 0-48 21.5-48 48l0 64c0 26.5 21.5 48 48 48zM48 352l64 0c8.8 0 16 7.2 16 16l0 64c0 8.8-7.2 16-16 16l-64 0c-8.8 0-16-7.2-16-16l0-64c0-8.8 7.2-16 16-16zm208 0l64 0c8.8 0 16 7.2 16 16l0 64c0 8.8-7.2 16-16 16l-64 0c-8.8 0-16-7.2-16-16l0-64c0-8.8 7.2-16 16-16zm208 0l64 0c8.8 0 16 7.2 16 16l0 64c0 8.8-7.2 16-16 16l-64 0c-8.8 0-16-7.2-16-16l0-64c0-8.8 7.2-16 16-16z"/></svg>

<svg xmlns="http://www.w3.org/2000/svg" viewBox="0 0 576 512"><!--! Font Awesome Pro 6.4.2 by @fontawesome - https://fontawesome.com License - https://fontawesome.com/license (Commercial License) Copyright 2023 Fonticons, Inc. --><path d="M320 64c8.8 0 16 7.2 16 16v64c0 8.8-7.2 16-16 16H304 272 256c-8.8 0-16-7.2-16-16V80c0-8.8 7.2-16 16-16h64zM256 192h16v48H112c-26.5 0-48 21.5-48 48v32H48c-26.5 0-48 21.5-48 48v64c0 26.5 21.5 48 48 48h64c26.5 0 48-21.5 48-48V368c0-26.5-21.5-48-48-48H96V288c0-8.8 7.2-16 16-16H272v48H256c-26.5 0-48 21.5-48 48v64c0 26.5 21.5 48 48 48h64c26.5 0 48-21.5 48-48V368c0-26.5-21.5-48-48-48H304V272H464c8.8 0 16 7.2 16 16v32H464c-26.5 0-48 21.5-48 48v64c0 26.5 21.5 48 48 48h64c26.5 0 48-21.5 48-48V368c0-26.5-21.5-48-48-48H512V288c0-26.5-21.5-48-48-48H304V192h16c26.5 0 48-21.5 48-48V80c0-26.5-21.5-48-48-48H256c-26.5 0-48 21.5-48 48v64c0 26.5 21.5 48 48 48zM48 352h64c8.8 0 16 7.2 16 16v64c0 8.8-7.2 16-16 16H48c-8.8 0-16-7.2-16-16V368c0-8.8 7.2-16 16-16zm208 0h64c8.8 0 16 7.2 16 16v64c0 8.8-7.2 16-16 16H256c-8.8 0-16-7.2-16-16V368c0-8.8 7.2-16 16-16zm208 0h64c8.8 0 16 7.2 16 16v64c0 8.8-7.2 16-16 16H464c-8.8 0-16-7.2-16-16V368c0-8.8 7.2-16 16-16z"/></svg>
